X:2
T:Bollywogs
C:Robin Beech
N:Halloween Composition 2008
Z:robin.beech@mcgill.ca
Q:230
M:3/2
L:1/4
K:A
ae2cA/B/ c/A/ | dB2AGE | D/E/ F/G/ABGE | Fd2 G AB |
Ae2c aA | Bd2FGE | F/E/ D/F/ ABGE |DE2 CB,A, ::
Ac2AB/c/ d/B/ | ce2cd/e/ f/d/ | egaefB | Ge2GAB |
cA2dB/A/ G/B/ | ec2fd/c/ B/A/ | GABFGE | DE2CB,A, :|
